X:160
T:Provincial Park Reel
R:reel
C:Bruce Osborne  --  July  1991
Z:abc by bosborne@kos.net
M:2/4
L:1/8
K:Bb
B/A/|BF F/G/F/E/|DB, B,A,/B,/|C/=B,/C/D/ E/G/F/E/|D/B,/D/F/ B/c/B/A/|\
BF F/G/F/E/|DB, B,A,/B,/|C/=B,/C/D/ E/G/F/E/|DB, B,:|
|:D/F/|B/A/B/c/ Bd/e/|f/g/f/d/ BA/B/|c/F/d/F/ e/F/d/F/|c/F/d/F/ cA|\
B/A/B/c/ Bd/e/|f/g/f/d/ BA/B/|c/F/d/F/ e/c/A/c/|B/A/B/c/ B:|
